!!!OTL: ES WAR EIN JUNGES MAEDCHEN VON REIZENDER GESTALT
!!!ARE: Europa, Mitteleuropa, Deutschland, Coburg
!!!SCT: B0167B
!!!YEM: Copyright 1995, estate of Helmut Schaffrath.
**kern
*ICvox
*Ivox
*M2/4
*k[b-e-]
*B-:
{8f
=1
8f
8b-
8b-
8b-
=2
4dd
8b-}
{8f
=3
8.f
16g
8f
8e-
=4
4d
8r}
{8b-
=5
8a
8cc
8ff
8b-
=6
8a
8cc
8ff}
{8b-
=7
4a
4g
=8
4f
8r}
{8cc
=9
8cc
8a
8a
8f
=10
8f
8dd
8b-}
{8ff
=11
8ff
8ee-
8ee-
8dd
=12
4dd
8cc}
{8f
=13
4ff
8ee-
8f
=14
4ee-
8dd}
{8f
=15
8g
8cc
8b-
8a
=16
4b-
8r}
==
!!!AGN: Ballade, Romanze
!!!ONB: ESAC (Essen Associative Code) Database: BOEHME
!!!AMT: simple duple
!!!AIN: vox
!!!EED: Helmut Schaffrath
!!!EEV: 1.0
*-
